frontend/public/images/firulete-triple.svg

<?xml version="1.0" encoding="UTF-8" standalone="no"?>
<svg
   width="294.5"
   height="372"
   viewBox="0 0 294.5 372"
   fill="none"
   version="1.1"
   id="svg6"
   sodipodi:docname="firulete-triple.svg"
   inkscape:version="1.3.2 (091e20e, 2023-11-25)"
   xmlns:inkscape="http://www.inkscape.org/namespaces/inkscape"
   xmlns:sodipodi="http://sodipodi.sourceforge.net/DTD/sodipodi-0.dtd"
   xmlns="http://www.w3.org/2000/svg"
   xmlns:svg="http://www.w3.org/2000/svg">
  <sodipodi:namedview
     id="namedview6"
     pagecolor="#ffffff"
     bordercolor="#000000"
     borderopacity="0.25"
     inkscape:showpageshadow="2"
     inkscape:pageopacity="0.0"
     inkscape:pagecheckerboard="0"
     inkscape:deskcolor="#d1d1d1"
     inkscape:zoom="0.3172043"
     inkscape:cx="293.18644"
     inkscape:cy="372"
     inkscape:window-width="1512"
     inkscape:window-height="945"
     inkscape:window-x="0"
     inkscape:window-y="37"
     inkscape:window-maximized="0"
     inkscape:current-layer="svg6" />
  <g
     clip-path="url(#clip0_171_30)"
     id="g6"
     transform="scale(0.5)">
    <path
       d="M 177.078,744 C 109.594,744 46.429,721.864 1.61963,681.64 l 2.42942,-2.699 c 47.77865,42.653 117.15195,64.789 189.76495,61.01 62.895,-3.51 128.759,-25.376 196.243,-65.33 55.067,-32.665 128.76,-94.485 182.747,-139.567 l 14.037,-11.878 2.429,2.699 -14.037,11.878 c -53.987,45.083 -127.949,106.903 -183.016,139.838 -68.024,40.223 -134.428,62.36 -197.863,65.869 -5.939,0.27 -11.607,0.54 -17.276,0.54 z"
       fill="#231f20"
       id="path1" />
    <path
       d="m 21.5949,677.051 0.2699,3.509 -17.81576,0.54 1.88955,17.817 -3.50917,0.27 L 0,677.591 Z"
       fill="#000000"
       id="path2" />
    <path
       d="m 13.2268,452.717 -2.4294,-2.7 C 110.134,363.361 272.365,160.354 305.027,0 l 3.51,0.809869 C 275.604,161.974 112.833,365.791 13.2268,452.717 Z"
       fill="#231f20"
       id="path3" />
    <path
       d="m 30.7726,454.337 v -3.51 l -17.8158,-0.27 1.8896,-17.817 -3.7791,-0.27 -1.88957,21.597 z"
       fill="#000000"
       id="path4" />
    <path
       d="m 184.096,669.492 c -5.398,0 -10.257,-2.97 -13.226,-8.369 -4.05,-7.288 -4.05,-17.007 0.269,-23.756 3.78,-5.939 8.908,-10.258 14.847,-13.498 C 149.275,579.866 89.0789,555.84 32.3924,562.859 l -0.5399,-3.509 c 58.3062,-7.019 119.8515,17.547 157.1025,62.63 3.779,-1.89 7.558,-3.51 11.607,-5.129 l 2.7,-1.08 c 87.459,-34.285 166.01,-112.302 221.077,-220.015 48.589,-95.024 74.503,-203.547 68.834,-290.743 l 3.509,-0.27 c 5.669,87.736 -20.245,197.068 -69.104,292.633 -55.606,108.522 -134.967,187.08 -222.967,221.634 l -2.699,1.08 c -3.509,1.62 -7.288,2.97 -10.527,4.859 4.858,6.209 9.717,14.308 10.257,23.216 0.27,5.94 -2.159,12.149 -6.208,16.198 -3.24,3.239 -7.289,5.129 -11.338,5.129 z m 4.049,-43.193 c -5.668,3.239 -10.797,7.289 -14.306,12.688 -3.509,5.669 -3.509,14.038 0,20.247 1.349,2.429 4.589,6.479 9.987,6.479 4.049,0 7.019,-2.16 8.908,-4.05 3.24,-3.509 5.399,-8.638 5.129,-13.498 -0.27,-8.368 -4.859,-15.657 -9.718,-21.866 z"
       fill="#231f20"
       id="path5" />
    <path
       d="m 45.6192,574.467 2.1594,-2.699 -14.3066,-10.799 11.8772,-13.497 -2.6993,-2.16 -14.3066,16.197 z"
       fill="#000000"
       id="path6" />
  </g>
  <defs
     id="defs6">
    <clipPath
       id="clip0_171_30">
      <rect
         width="589"
         height="744"
         fill="#ffffff"
         id="rect6"
         x="0"
         y="0" />
    </clipPath>
  </defs>
</svg>

<svg width="589" height="744" viewBox="0 0 589 744" fill="none" xmlns="http://www.w3.org/2000/svg">
<g clip-path="url(#clip0_171_30)">
<path d="M177.078 744C109.594 744 46.429 721.864 1.61963 681.64L4.04905 678.941C51.8277 721.594 121.201 743.73 193.814 739.951C256.709 736.441 322.573 714.575 390.057 674.621C445.124 641.956 518.817 580.136 572.804 535.054L586.841 523.176L589.27 525.875L575.233 537.753C521.246 582.836 447.284 644.656 392.217 677.591C324.193 717.814 257.789 739.951 194.354 743.46C188.415 743.73 182.747 744 177.078 744Z" fill="#231F20"/>
<path d="M21.5949 677.051L21.8648 680.56L4.04904 681.1L5.93859 698.917L2.42942 699.187L0 677.591L21.5949 677.051Z" fill="black"/>
<path d="M13.2268 452.717L10.7974 450.017C110.134 363.361 272.365 160.354 305.027 0L308.537 0.809869C275.604 161.974 112.833 365.791 13.2268 452.717Z" fill="#231F20"/>
<path d="M30.7726 454.337V450.827L12.9568 450.557L14.8464 432.74L11.0673 432.47L9.17773 454.067L30.7726 454.337Z" fill="black"/>
<path d="M184.096 669.492C178.698 669.492 173.839 666.522 170.87 661.123C166.82 653.835 166.82 644.116 171.139 637.367C174.919 631.428 180.047 627.109 185.986 623.869C149.275 579.866 89.0789 555.84 32.3924 562.859L31.8525 559.35C90.1587 552.331 151.704 576.897 188.955 621.98C192.734 620.09 196.513 618.47 200.562 616.851L203.262 615.771C290.721 581.486 369.272 503.469 424.339 395.756C472.928 300.732 498.842 192.209 493.173 105.013L496.682 104.743C502.351 192.479 476.437 301.811 427.578 397.376C371.972 505.898 292.611 584.456 204.611 619.01L201.912 620.09C198.403 621.71 194.624 623.06 191.385 624.949C196.243 631.158 201.102 639.257 201.642 648.165C201.912 654.105 199.483 660.314 195.434 664.363C192.194 667.602 188.145 669.492 184.096 669.492ZM188.145 626.299C182.477 629.538 177.348 633.588 173.839 638.987C170.33 644.656 170.33 653.025 173.839 659.234C175.188 661.663 178.428 665.713 183.826 665.713C187.875 665.713 190.845 663.553 192.734 661.663C195.974 658.154 198.133 653.025 197.863 648.165C197.593 639.797 193.004 632.508 188.145 626.299Z" fill="#231F20"/>
<path d="M45.6192 574.467L47.7786 571.768L33.472 560.969L45.3492 547.472L42.6499 545.312L28.3433 561.509L45.6192 574.467Z" fill="black"/>
</g>
<defs>
<clipPath id="clip0_171_30">
<rect width="589" height="744" fill="white"/>
</clipPath>
</defs>
</svg>
